symbols/web/podcasts/materialsymbolsoutlined/podcasts_wght600_24px.svg

<svg xmlns="http://www.w3.org/2000/svg" height="24" width="24"><path d="M10.8 22.85V14.1q-.55-.3-.9-.85T9.55 12q0-1 .725-1.725Q11 9.55 12 9.55t1.725.725Q14.45 11 14.45 12q0 .7-.35 1.25t-.9.85v8.75Zm-6.3-3q-1.55-1.475-2.45-3.5-.9-2.025-.9-4.35 0-2.25.85-4.238.85-1.987 2.312-3.45Q5.775 2.85 7.763 2 9.75 1.15 12 1.15t4.238.85q1.987.85 3.45 2.312Q21.15 5.775 22 7.762q.85 1.988.85 4.238 0 2.325-.9 4.35-.9 2.025-2.45 3.5l-1.7-1.7Q19 17 19.725 15.412q.725-1.587.725-3.412 0-3.525-2.462-5.988Q15.525 3.55 12 3.55q-3.525 0-5.987 2.462Q3.55 8.475 3.55 12q0 1.8.713 3.387.712 1.588 1.962 2.738Zm2.975-2.975q-.975-.9-1.55-2.163Q5.35 13.45 5.35 12q0-2.775 1.937-4.713Q9.225 5.35 12 5.35q2.775 0 4.713 1.937Q18.65 9.225 18.65 12q0 1.475-.575 2.725t-1.55 2.15L14.8 15.15q.65-.575 1.025-1.4.375-.825.375-1.75 0-1.725-1.225-2.963Q13.75 7.8 12 7.8q-1.725 0-2.962 1.225Q7.8 10.25 7.8 12q0 .95.375 1.762.375.813 1.025 1.388Z"/></svg>

<svg xmlns="http://www.w3.org/2000/svg" height="24" width="24"><path d="M4.5 19.85Q2.95 18.375 2.05 16.35Q1.15 14.325 1.15 12Q1.15 9.75 2 7.762Q2.85 5.775 4.312 4.312Q5.775 2.85 7.763 2Q9.75 1.15 12 1.15Q14.25 1.15 16.238 2Q18.225 2.85 19.688 4.312Q21.15 5.775 22 7.762Q22.85 9.75 22.85 12Q22.85 14.325 21.95 16.35Q21.05 18.375 19.5 19.85L17.8 18.15Q19 17 19.725 15.412Q20.45 13.825 20.45 12Q20.45 8.475 17.988 6.012Q15.525 3.55 12 3.55Q8.475 3.55 6.013 6.012Q3.55 8.475 3.55 12Q3.55 13.8 4.263 15.387Q4.975 16.975 6.225 18.125ZM7.475 16.875Q6.5 15.975 5.925 14.712Q5.35 13.45 5.35 12Q5.35 9.225 7.287 7.287Q9.225 5.35 12 5.35Q14.775 5.35 16.713 7.287Q18.65 9.225 18.65 12Q18.65 13.475 18.075 14.725Q17.5 15.975 16.525 16.875L14.8 15.15Q15.45 14.575 15.825 13.75Q16.2 12.925 16.2 12Q16.2 10.275 14.975 9.037Q13.75 7.8 12 7.8Q10.275 7.8 9.038 9.025Q7.8 10.25 7.8 12Q7.8 12.95 8.175 13.762Q8.55 14.575 9.2 15.15ZM10.8 22.85V14.1Q10.25 13.8 9.9 13.25Q9.55 12.7 9.55 12Q9.55 11 10.275 10.275Q11 9.55 12 9.55Q13 9.55 13.725 10.275Q14.45 11 14.45 12Q14.45 12.7 14.1 13.25Q13.75 13.8 13.2 14.1V22.85Z"/></svg>
